build/img/icon-js.svg

<svg width="69" height="69" viewBox="0 0 69 69" fill="none" xmlns="http://www.w3.org/2000/svg">
  <path d="M0 0H69V69H0V0Z" fill="#F0DB4F"/>
  <path d="M63.3527 52.5437C62.8477 49.3954 60.7948 46.7522 54.7146 44.286C52.6027 43.3153 50.248 42.6201 49.5462 41.0197C49.297 40.0883 49.2642 39.5636 49.4216 38.9995C49.8741 37.1696 52.0583 36.599 53.7898 37.1237C54.9048 37.4975 55.9608 38.3568 56.597 39.7276C59.5748 37.7993 59.5682 37.8124 61.6474 36.4875C60.8866 35.3069 60.4799 34.7625 59.9814 34.2575C58.1909 32.257 55.7509 31.2272 51.8484 31.306C51.1728 31.3912 50.4907 31.483 49.8151 31.5683C47.8672 32.0602 46.0109 33.0834 44.9222 34.4542C41.6558 38.16 42.5872 44.6468 46.5619 47.3163C50.4776 50.2547 56.2297 50.9237 56.9643 53.6719C57.6793 57.0367 54.4917 58.1254 51.3237 57.7385C48.9887 57.2531 47.6901 56.0659 46.2864 53.9081C43.7023 55.4035 43.7023 55.4035 41.0459 56.9317C41.6756 58.3091 42.3379 58.9322 43.394 60.1259C48.3919 65.196 60.8997 64.9467 63.1429 57.2728C63.2347 57.0104 63.8382 55.2526 63.3527 52.5437V52.5437ZM37.5106 31.7125H31.0566C31.0566 37.2876 31.0304 42.8234 31.0304 48.3985C31.0304 51.9469 31.2141 55.2001 30.6369 56.1971C29.6924 58.1581 27.2459 57.9155 26.1309 57.535C24.9962 56.9775 24.419 56.1839 23.75 55.0624C23.5664 54.741 23.4286 54.4917 23.3826 54.4721C21.6315 55.5412 19.8867 56.6168 18.1355 57.6859C19.0079 59.4765 20.2934 61.031 21.9397 62.041C24.3993 63.5168 27.705 63.9693 31.1616 63.1757C33.4113 62.5198 35.3527 61.1622 36.3693 59.0961C37.8385 56.3873 37.5237 53.1078 37.5106 49.4807C37.5434 43.5645 37.5106 37.6484 37.5106 31.7125Z" fill="#323330"/>
</svg>

<svg width="69" height="69" fill="none" xmlns="http://www.w3.org/2000/svg"><path d="M0 0h69v69H0V0z" fill="#F0DB4F"/><path d="M63.353 52.544c-.505-3.149-2.558-5.792-8.638-8.258-2.112-.97-4.467-1.666-5.169-3.266-.249-.932-.282-1.456-.124-2.02.452-1.83 2.636-2.401 4.368-1.876 1.115.373 2.17 1.233 2.807 2.604 2.978-1.929 2.971-1.916 5.05-3.24-.76-1.181-1.167-1.725-1.666-2.23-1.79-2.001-4.23-3.03-8.133-2.952-.675.085-1.357.177-2.033.262-1.948.492-3.804 1.515-4.893 2.886-3.266 3.706-2.335 10.193 1.64 12.862 3.916 2.939 9.668 3.608 10.402 6.356.715 3.365-2.472 4.453-5.64 4.067-2.335-.486-3.634-1.673-5.038-3.83-2.584 1.495-2.584 1.495-5.24 3.023.63 1.377 1.292 2 2.348 3.194 4.998 5.07 17.506 4.82 19.749-2.853.092-.263.695-2.02.21-4.73zM37.51 31.713h-6.454c0 5.575-.027 11.11-.027 16.685 0 3.549.184 6.802-.393 7.8-.945 1.96-3.391 1.718-4.506 1.337-1.135-.557-1.712-1.351-2.381-2.473-.184-.321-.321-.57-.367-.59-1.752 1.07-3.496 2.145-5.247 3.214.872 1.79 2.157 3.345 3.804 4.355 2.46 1.476 5.765 1.928 9.222 1.135 2.25-.656 4.19-2.014 5.207-4.08 1.47-2.709 1.155-5.988 1.142-9.615.032-5.916 0-11.833 0-17.769z" fill="#323330"/></svg>
